packages/ui/public/icons/fundraiser-dollar-icon.svg

<svg width="21" height="19" viewBox="0 0 21 19" fill="none" xmlns="http://www.w3.org/2000/svg">
<path d="M10.3594 0C4.8443 0 0.359375 4.26067 0.359375 9.5C0.359375 14.7393 4.8443 19 10.3594 19C15.8745 19 20.3594 14.7393 20.3594 9.5C20.3594 4.26067 15.8745 0 10.3594 0ZM10.3594 1.26674C15.1538 1.26674 19.026 4.94543 19.026 9.50008C19.026 14.0547 15.1537 17.7334 10.3594 17.7334C5.56501 17.7334 1.69271 14.0547 1.69271 9.50008C1.69271 4.94543 5.56501 1.26674 10.3594 1.26674ZM10.3524 3.15343C10.3291 3.15461 10.3061 3.15667 10.283 3.16006C10.1185 3.17817 9.96705 3.25357 9.85792 3.37182C9.74879 3.49022 9.68988 3.64278 9.69267 3.80004V4.69066C9.1272 4.76812 8.58759 4.94689 8.13017 5.24479C7.49509 5.65846 7.02605 6.35426 7.02605 7.1777C7.02605 8.02222 7.54224 8.68828 8.15113 9.08441C8.75986 9.4804 9.46375 9.70542 10.1233 9.94205C10.7829 10.1785 11.3953 10.4233 11.783 10.7139C12.1707 11.0045 12.3593 11.2722 12.3593 11.8223C12.3593 12.2278 12.1902 12.4838 11.8385 12.7129C11.4869 12.9419 10.9391 13.0888 10.3594 13.0888C8.72867 13.0888 8.30378 11.9872 8.30378 11.9872C8.23202 11.8331 8.09871 11.7125 7.93331 11.6519C7.76792 11.5913 7.58392 11.5956 7.42177 11.6638C7.25978 11.732 7.13283 11.8586 7.06896 12.0157C7.00525 12.1729 7.00975 12.3477 7.08152 12.5017C7.08152 12.5017 7.84834 13.9921 9.69267 14.2962V15.2C9.69019 15.3695 9.75933 15.5329 9.88457 15.6537C10.0098 15.7744 10.181 15.8423 10.3594 15.8423C10.5378 15.8423 10.7089 15.7744 10.8342 15.6537C10.9594 15.5329 11.0286 15.3695 11.0261 15.2V14.3094C11.5916 14.2319 12.1312 14.0531 12.5886 13.7552C13.2237 13.3416 13.6927 12.6458 13.6927 11.8223C13.6927 10.9073 13.2148 10.1769 12.6023 9.71769C11.99 9.25867 11.2692 9.00274 10.5954 8.76109C9.92163 8.51944 9.29226 8.29001 8.90103 8.0354C8.50979 7.78093 8.35945 7.59994 8.35945 7.17776C8.35945 6.7722 8.52856 6.51626 8.88028 6.28713C9.23184 6.05815 9.77965 5.91118 10.3594 5.91118C11.9901 5.91118 12.415 7.01284 12.415 7.01284C12.4867 7.16687 12.62 7.28748 12.7854 7.34815C12.9508 7.40867 13.1348 7.4044 13.297 7.33622C13.459 7.26804 13.5859 7.14139 13.6498 6.98427C13.7135 6.82714 13.709 6.65235 13.6372 6.4983C13.6372 6.4983 12.8704 5.00789 11.0261 4.70378V3.80004C11.0298 3.62863 10.9602 3.46311 10.8332 3.34132C10.7064 3.21939 10.5328 3.15165 10.3524 3.15342L10.3524 3.15343Z" fill="white"/>
</svg>

<svg width="21" height="19" fill="none" xmlns="http://www.w3.org/2000/svg"><path d="M10.36 0c-5.516 0-10 4.26-10 9.5s4.484 9.5 10 9.5c5.514 0 10-4.26 10-9.5S15.873 0 10.36 0Zm0 1.267c4.794 0 8.666 3.678 8.666 8.233 0 4.555-3.872 8.233-8.667 8.233-4.794 0-8.666-3.678-8.666-8.233 0-4.555 3.872-8.233 8.666-8.233Zm-.008 1.886a.73.73 0 0 0-.069.007.679.679 0 0 0-.425.212.615.615 0 0 0-.165.428v.89c-.566.078-1.105.257-1.563.555-.635.413-1.104 1.11-1.104 1.933 0 .844.516 1.51 1.125 1.906.609.396 1.313.621 1.972.858.66.236 1.272.481 1.66.772.388.29.576.558.576 1.108 0 .406-.169.662-.52.89-.352.23-.9.377-1.48.377-1.63 0-2.055-1.102-2.055-1.102a.654.654 0 0 0-.37-.335.702.702 0 0 0-.512.012.65.65 0 0 0-.353.352.607.607 0 0 0 .013.486s.766 1.49 2.61 1.794v.904a.618.618 0 0 0 .193.454c.125.12.296.188.474.188.179 0 .35-.068.475-.188a.618.618 0 0 0 .192-.454v-.89c.566-.078 1.105-.257 1.563-.555.635-.413 1.104-1.11 1.104-1.933 0-.915-.478-1.645-1.09-2.104-.613-.46-1.334-.715-2.008-.957-.673-.242-1.303-.471-1.694-.726-.391-.254-.542-.435-.542-.857 0-.406.17-.662.521-.89.352-.23.9-.377 1.48-.377 1.63 0 2.055 1.102 2.055 1.102a.655.655 0 0 0 .37.335c.166.06.35.056.512-.012a.65.65 0 0 0 .353-.352.607.607 0 0 0-.013-.486s-.767-1.49-2.61-1.794V3.8a.617.617 0 0 0-.194-.459.685.685 0 0 0-.48-.188Z" fill="#fff"/></svg>
